public/assets/images/knowledge/sql.svg

<svg height="32" viewBox="0 0 32 32" width="32" xmlns="http://www.w3.org/2000/svg"><path d="m21 26v2.0025781c0 1.1064965-.8942762 1.9974219-1.9974219 1.9974219h-15.00515619c-1.10649652 0-1.99742191-.8987122-1.99742191-2.0073299v-22.98534016c0-1.10899162.8992496-2.00732994 2.0085302-2.00732994h9.9914698v6.00189865c0 1.11139495.8980806 1.99810135 2.0059191 1.99810135h4.9940809v2h-9.9931517c-1.66063645 0-3.0068483 1.3422643-3.0068483 2.9987856v7.0024288c0 1.6561835 1.33599155 2.9987856 3.0068483 2.9987856zm-6-23v5.99707067c0 .55390257.4509752 1.00292933.990778 1.00292933h5.009222zm-4.0054385 11c-1.10156592 0-1.9945615.9001762-1.9945615 1.992017v7.015966c0 1.1001606.90234375 1.992017 1.9945615 1.992017h17.010877c1.1015659 0 1.9945615-.9001762 1.9945615-1.992017v-7.015966c0-1.1001606-.9023438-1.992017-1.9945615-1.992017zm9.6810828 8.8827511c-.2124753.0759771-.4416207.1172489-.6805258.1172489h-.990237c-1.1109817 0-2.0048815-.8980806-2.0048815-2.0059191v-2.9881618c0-1.1193643.897616-2.0059191 2.0048815-2.0059191h.990237c1.1109817 0 2.0048815.8980806 2.0048815 2.0059191v2.9881618c0 .5052786-.1828982.9631199-.4854177 1.3133946l.7531847.7531847-.7071068.7071068zm-.8827511-.8827511h-.7939366c-.5562963 0-.9989566-.4476291-.9989566-.9998075v-3.000385c0-.5560909.4472481-.9998075.9989566-.9998075h1.0020868c.5562963 0 .9989566.4476291.9989566.9998075v3.000385c0 .2244538-.0728636.4306-.1960501.5966506l-1.3646101-1.3646101-.7071068.7071068zm-6.7880117-6c-1.1072655 0-2.0048815.8877296-2.0048815 2 0 1.1045695.8877296 2 2 2h.9906311c.5574591 0 1.0093689.4438648 1.0093689 1 0 .5522847-.4426603 1-.9989566 1h-1.0020868c-.5517085 0-.9989566-.456284-.9989566-.9955287v-.0113072h-1v.0057569c0 1.1051654.8938998 2.001079 2.0048815 2.001079h.990237c1.1072655 0 2.0048815-.8877296 2.0048815-2 0-1.1045695-.8877296-2-2-2h-.9906311c-.5574591 0-1.0093689-.4438648-1.0093689-1 0-.5522847.4426603-1 .9989566-1h1.0020868c.5517085 0 .9989566.453186.9989566 1h1c0-1.1045695-.8938998-2-2.0048815-2zm14.9951185 6v1h-5v-7h1v6z" fill="#157efb" fill-rule="evenodd"/></svg>

<?xml version="1.0" ?><svg height="32px" version="1.1" viewBox="0 0 32 32" width="32px" xmlns="http://www.w3.org/2000/svg" xmlns:sketch="http://www.bohemiancoding.com/sketch/ns" xmlns:xlink="http://www.w3.org/1999/xlink"><title/><desc/><defs/><g fill="none" fill-rule="evenodd" id="Page-1" stroke="none" stroke-width="1"><g fill="#157EFB" id="icon-89-document-file-sql"><path d="M21,26 L21,28.0025781 C21,29.1090746 20.1057238,30 19.0025781,30 L3.99742191,30 C2.89092539,30 2,29.1012878 2,27.9926701 L2,5.00732994 C2,3.89833832 2.8992496,3 4.0085302,3 L14,3 L14,9.00189865 C14,10.1132936 14.8980806,11 16.0059191,11 L21,11 L21,13 L11.0068483,13 C9.34621185,13 8,14.3422643 8,15.9987856 L8,23.0012144 C8,24.6573979 9.33599155,26 11.0068483,26 L21,26 L21,26 Z M15,3 L15,8.99707067 C15,9.55097324 15.4509752,10 15.990778,10 L21,10 L15,3 L15,3 Z M10.9945615,14 C9.89299558,14 9,14.9001762 9,15.992017 L9,23.007983 C9,24.1081436 9.90234375,25 10.9945615,25 L28.0054385,25 C29.1070044,25 30,24.0998238 30,23.007983 L30,15.992017 C30,14.8918564 29.0976562,14 28.0054385,14 L10.9945615,14 L10.9945615,14 Z M20.6756443,22.8827511 C20.463169,22.9587282 20.2340236,23 19.9951185,23 L19.0048815,23 C17.8938998,23 17,22.1019194 17,20.9940809 L17,18.0059191 C17,16.8865548 17.897616,16 19.0048815,16 L19.9951185,16 C21.1061002,16 22,16.8980806 22,18.0059191 L22,20.9940809 C22,21.4993595 21.8171018,21.9572008 21.5145823,22.3074755 L22.267767,23.0606602 L21.5606602,23.767767 L20.6756443,22.8827511 L20.6756443,22.8827511 L20.6756443,22.8827511 Z M19.7928932,22 L18.9989566,22 C18.4426603,22 18,21.5523709 18,21.0001925 L18,17.9998075 C18,17.4437166 18.4472481,17 18.9989566,17 L20.0010434,17 C20.5573397,17 21,17.4476291 21,17.9998075 L21,21.0001925 C21,21.2246463 20.9271364,21.4307925 20.8039499,21.5968431 L19.4393398,20.232233 L18.732233,20.9393398 L19.7928932,22 L19.7928932,22 L19.7928932,22 Z M13.0048815,16 C11.897616,16 11,16.8877296 11,18 C11,19.1045695 11.8877296,20 13,20 L13.9906311,20 C14.5480902,20 15,20.4438648 15,21 C15,21.5522847 14.5573397,22 14.0010434,22 L12.9989566,22 C12.4472481,22 12,21.543716 12,21.0044713 L12,20.9931641 L11,20.9931641 L11,20.998921 C11,22.1040864 11.8938998,23 13.0048815,23 L13.9951185,23 C15.102384,23 16,22.1122704 16,21 C16,19.8954305 15.1122704,19 14,19 L13.0093689,19 C12.4519098,19 12,18.5561352 12,18 C12,17.4477153 12.4426603,17 12.9989566,17 L14.0010434,17 C14.5527519,17 15,17.453186 15,18 L16,18 C16,16.8954305 15.1061002,16 13.9951185,16 L13.0048815,16 L13.0048815,16 Z M28,22 L28,23 L23,23 L23,16 L24,16 L24,22 L28,22 L28,22 Z" id="document-file-sql"/></g></g></svg>
